X:71
T:The Kilfodda                                                                                      
M:4/4                                                                                               
L:1/8                                                                                               
K:F                                                                                                 
G|AdcA G^GA=G|FAGF DCFD|CA, A,2 CDFG|AF F2 GB B2|                                                   
AdcA G2 AG|FAGF DCFD|CA, A,2 CDFG|AcGc F3 :|                                                        
A|c3 A BAGA|F2 AF GFDF|CFAF cFAF|BAGF DGGA|                                                         
BABc dc=Bc|dcde fcAF|CFAF CFAd|cAGA F3 :|
